source/images/icons/icon-leaf.svg

<svg width="30" height="32" viewBox="0 0 30 32" fill="none" xmlns="http://www.w3.org/2000/svg">
<g clip-path="url(#clip0_130_911)">
<path d="M27.8438 2.767C27.7434 2.317 27.3647 2 26.9325 2C26.9306 2 26.9288 2 26.9269 2C21.9891 2.033 9.98156 2.916 5.13375 10.38C2.61562 14.258 2.39906 19.293 4.48969 25.345C4.50562 25.392 4.53844 25.424 4.56 25.467C3.81281 27.44 3.52312 28.753 3.51562 28.79C3.40687 29.33 3.73031 29.862 4.23656 29.978C4.30219 29.993 4.36781 30 4.43344 30C4.86562 30 5.25469 29.679 5.34937 29.21C5.36906 29.108 7.75781 18.837 16.2028 12.832C16.6341 12.526 16.7503 11.905 16.4625 11.445C16.1747 10.985 15.5934 10.86 15.1622 11.168C10.3734 14.573 7.42406 19.176 5.68969 22.824C4.44844 18.246 4.77375 14.447 6.67594 11.519C10.4194 5.755 19.2984 4.365 24.6581 4.071C23.505 5.872 22.245 9.174 22.245 15C22.245 18.12 21.4153 20.522 19.7803 22.14C17.1591 24.731 12.9009 24.974 9.78656 24.724C9.26906 24.679 8.82 25.095 8.78062 25.646C8.74125 26.196 9.12844 26.676 9.64406 26.718C10.2675 26.769 10.9331 26.8 11.625 26.8C14.7956 26.8 18.4941 26.137 21.0544 23.606C23.0888 21.595 24.12 18.7 24.12 15.001C24.12 5.902 27.3356 3.905 27.3516 3.896C27.7416 3.687 27.9459 3.219 27.8438 2.767Z" fill="white"/>
</g>
<defs>
<clipPath id="clip0_130_911">
<rect width="30" height="32" fill="white"/>
</clipPath>
</defs>
</svg>

<svg viewBox="0 0 30 32" fill="none" xmlns="http://www.w3.org/2000/svg"><g clip-path="url(#a)"><path d="M27.84 2.77a.95.95 0 0 0-.9-.77h-.01c-4.94.03-16.95.92-21.8 8.38-2.51 3.88-2.73 8.91-.64 14.96l.07.13a25.93 25.93 0 0 0-1.04 3.32 1 1 0 0 0 .72 1.19l.2.02c.43 0 .81-.32.9-.79.03-.1 2.42-10.37 10.86-16.38.43-.3.55-.93.26-1.38a.9.9 0 0 0-1.3-.28c-4.79 3.4-7.74 8-9.47 11.65-1.24-4.57-.92-8.37.99-11.3 3.74-5.76 12.62-7.15 17.98-7.45-1.16 1.8-2.41 5.1-2.41 10.93 0 3.12-.83 5.52-2.47 7.14-2.62 2.6-6.88 2.83-10 2.58-.51-.04-.96.38-1 .93-.04.55.35 1.03.86 1.07.63.05 1.3.08 1.98.08 3.18 0 6.87-.66 9.43-3.2 2.04-2 3.07-4.9 3.07-8.6 0-9.1 3.22-11.1 3.23-11.1.4-.21.6-.68.5-1.13Z" fill="#fff"/></g><defs><clipPath id="a"><path fill="#fff" d="M0 0h30v32h-30z"/></clipPath></defs></svg>
